!!!!SEGMENT: pl-kk--kk-i-423--002-006_golabek-jakub--missa-2da-agnus-dei.krn
!!!cenid: 17xx:2565
!!!COM: Gołąbek, Jakub
!!!COM-rismID: pe30008748
!!!CDT: 1739-1789/03/30
!!!CNT: Polish
!!!OPR: Missa 2da
!!!OTL: Agnus Dei
!!!OMV: 006
!!!PDT:
!!!AGN: Sacred; Mass
!!!YEC: Copyright 2022 Narodowy Instytut Fryderyka Chopina (https://polishscores.org)
!!!YEM: License CC-BY-4.0 (https://creativecommons.org/licenses/by/4.0)
!!!SMS-siglum: PL-Kk
!!!SMS-shelfmark: Kk.I.423
!!!SMS-variant:
!!!SMS-altvar:
!!!SMS-shelfwork: 002-006 M
!!!NIFC-rismSourceID: 1001147334
!!!NIFC-rismChildID: 1001147343
!!!NIFC-islandoraID:
!!!URL-pdf-islandora: https://repozytorium.nifc.pl/islandora/object/pl-kk%3A10566/datastream/PDF/view
!!!URL-scan: https://polish.musicsources.pl/pl/lokalizacje/galeria/rekopisy/6034-masses/3 @EN{Scan on Polish Music Sources Website} @PL{Skany w portalu Dziedzictwo Muzyki Polskiej w otwartym dostępie}
!!!IIIF:
!!!ONB-nifc: UWAGA: C – skan 4-6, A – 8-10, T – 12-14, B – 16-18. Części Mszy: Kyrie, Et in terra, Quoniam, Sanctus (+Pleni i Osanna), Benedictus, Agnus Dei.
!!!AIN: 1 alto 1 bass 1 canto 1 tenor
!!!key:
**kern	**text	**dynam	**kern	**text	**dynam	**kern	**text	**dynam	**kern	**text	**dynam
*part4	*part4	*part4	*part3	*part3	*part3	*part2	*part2	*part2	*part1	*part1	*part1
*staff4	*staff4	*	*staff3	*staff3	*	*staff2	*staff2	*	*staff1	*staff1	*
*I"Basso	*	*	*I"Tenore	*	*	*I"Alto	*	*	*I"Canto	*	*
*I'B.	*	*	*I'T.	*	*	*I'A.	*	*	*I'C.	*	*
*Ibass	*	*	*Itenor	*	*	*Ialto	*	*	*Icanto	*	*
*ICvox	*	*	*ICvox	*	*	*ICvox	*	*	*ICvox	*	*
*clefF4	*	*	*clefC4	*	*	*clefC3	*	*	*clefC1	*	*
*k[b-]	*	*	*k[b-]	*	*	*k[b-]	*	*	*k[b-]	*	*
*F:	*	*	*F:	*	*	*F:	*	*	*F:	*	*
*M3/2	*	*	*M3/2	*	*	*M3/2	*	*	*M3/2	*	*
=1	=1	=1	=1	=1	=1	=1	=1	=1	=1	=1	=1
*	*	*	*2\right	*	*	*2\right	*	*	*	*	*
1F	A-	.	2A\	A-	.	2f\	A-	.	1cc	A-	.
.	.	.	4c\	.	.	4a\	.	.	.	.	.
.	.	.	4A\	.	.	4f\	.	.	.	.	.
*2\right	*	*	*	*	*	*	*	*	*2\right	*	*
2C/	-gnus	.	4d\	.	.	4b-\	.	.	2g\	-gnus	.
.	.	.	4B-\	-gnus	.	4g\	-gnus	.	.	.	.
=2	=2	=2	=2	=2	=2	=2	=2	=2	=2	=2	=2
2F\	De-	.	2A\	De-	.	2f\	De-	.	2cc\	De-	.
2C/	.	.	2G/	-i	.	2e\	-i	.	2cc\	-i	.
4FF/	-i	.	4A/	.	.	4f\	qui-	.	2cc\	qui-	.
4F\	qui-	.	4A/	qui-	.	4f\	.	.	.	.	.
=3	=3	=3	=3	=3	=3	=3	=3	=3	=3	=3	=3
2C/	-tol-	.	4B-\	-tol-	.	4g\	-tol-	.	4ee\	-tol-	.
.	.	.	4A\	.	.	4f\	-lis	.	4cc\	.	.
4C/	-lis	.	4G\	-lis	.	4e\	.	.	4cc\	-lis	.
4C/	pec-	.	4B-\	pec-	.	4g\	pec-	.	4ee\	pec-	.
4F\	-ca-	.	4A\	-ca-	.	4f\	-ca-	.	4cc\	-ca-	.
4C/	-ta	.	4G\	-ta	.	4e\	-ta	.	4cc\	-ta	.
=4	=4	=4	=4	=4	=4	=4	=4	=4	=4	=4	=4
2F\	mun-	.	2A\	mun-	.	2f\	mun-	.	2cc\	mun-	.
2C/	-di	.	2c\	-di	.	2g\	-di	.	2cc\	-di	.
2r	.	.	2r	.	.	2r	.	.	2r	.	.
=5	=5	=5	=5	=5	=5	=5	=5	=5	=5	=5	=5
!	!	!LO:DY:a	!	!	!LO:DY:a	!	!	!LO:DY:a	!	!	!LO:DY:a
1F	A-	p	2A\	A-	p	2f\	A-	p	1cc	A-	p
!	!	!	!	!	!	!LO:LB:g=original	!	!	!	!	!
.	.	.	4c\	.	.	4a\	.	.	.	.	.
.	.	.	4A\	.	.	4f\	.	.	.	.	.
!	!	!	!LO:LB:g=original	!	!	!	!	!	!	!	!
2C/	-gnus	.	4d\	.	.	4b-\	.	.	2g\	-gnus	.
.	.	.	4B-\	-gnus	.	4g\	-gnus	.	.	.	.
=6	=6	=6	=6	=6	=6	=6	=6	=6	=6	=6	=6
2F\	De-	.	2A/	De-	.	2f\	De-	.	1cc	De-	.
2C/	.	.	2G/	.	.	2e\	.	.	.	.	.
4FF/	-i	.	4A/	-i	.	4f\	-i	.	4cc\	-i	.
4F\	qui-	.	4A/	qui-	.	4f\	qui-	.	4cc\	qui-	.
!LO:LB:g=original	!	!	!	!	!	!	!	!	!LO:LB:g=original	!	!
=7	=7	=7	=7	=7	=7	=7	=7	=7	=7	=7	=7
2C/	-tol-	.	4B-\	-tol-	.	4g\	-tol-	.	4ee\	-tol-	.
.	.	.	4A\	-lis	.	4f\	.	.	4cc\	.	.
4C/	-lis	.	4G\	.	.	4e\	-lis	.	4cc\	-lis-	.
4C/	pec-	.	4B-\	pec-	.	4g\	pec-	.	4ee\	-lis	.
4F\	-ca-	.	4A\	-ca-	.	4f\	-ca-	.	6cc\	pec-	.
.	.	.	.	.	.	.	.	.	6cc\	-ca-	.
4C/	-to	.	4G\	-ta	.	4e\	-ta	.	.	.	.
.	.	.	.	.	.	.	.	.	6cc\	-ta	.
=8	=8	=8	=8	=8	=8	=8	=8	=8	=8	=8	=8
2F\	Mun-	.	2A\	mun-	.	2f\	mun-	.	2cc\	Mun-	.
2C/	-di	.	2c\	-di	.	2g\	-di	.	2cc\	-di	.
2r	.	.	2r	.	.	2r	.	.	2r	.	.
=9	=9	=9	=9	=9	=9	=9	=9	=9	=9	=9	=9
!	!	!LO:DY:a	!	!	!LO:DY:a	!	!	!	!	!	!LO:DY:a
2C\	Mi-	f	4e\	Mi-	f	4g\	mi-	.	1cc	mi-	f
.	.	.	4d\	.	.	4f\	.	.	.	.	.
2E\	.	.	4c\	.	.	4e\	.	.	.	.	.
.	.	.	4B-\	.	.	4d\	.	.	.	.	.
2C\	-se-	.	4A\	-se-	.	4c\	.	.	2ee\	-se-	.
.	.	.	4G\	.	.	4B-\	-se-	.	.	.	.
=10	=10	=10	=10	=10	=10	=10	=10	=10	=10	=10	=10
2F\	-re-	.	2F/	-re-	.	2A/	-re-	.	2cc\	-re-	.
2C/	.	.	2G/	.	.	2B-/	.	.	2b-\	-re-	.
2F\	-re	.	2A/	-re	.	2c/	-re	.	2a\	-re	.
!	!	!	!LO:LB:g=original	!	!	!LO:LB:g=original	!	!	!	!	!
=11	=11	=11	=11	=11	=11	=11	=11	=11	=11	=11	=11
2BB-/	MI-	.	1B-	mi-	.	2d\	mi-	.	2b-\	mi-	.
2C/	.	.	.	.	.	2g\	.	.	2cc\	-se-	.
2F\	-se-	.	2A\	-se-	.	2f\	-se-	.	2cc\	-se-	.
=12	=12	=12	=12	=12	=12	=12	=12	=12	=12	=12	=12
2E\	-re-	.	1G	-re-	.	1e	-re-	.	1b-	-re-	.
2C/	.	.	.	.	.	.	.	.	.	.	.
2F\	-re	.	2A/	-re	.	2f\	-re	.	2cc\	-re	.
!LO:LB:g=original	!	!	!	!	!	!	!	!	!	!	!
=13	=13	=13	=13	=13	=13	=13	=13	=13	=13	=13	=13
2D/	no-	.	2B-\	no-	.	2g\	no-	.	2dd\	no-	.
1C	.	.	2A\	.	.	2f\	.	.	1cc	.	.
.	.	.	2G\	.	.	2e\	.	.	.	.	.
!	!	!	!	!	!	!	!	!	!LO:LB:g=original	!	!
=14	=14	=14	=14	=14	=14	=14	=14	=14	=14	=14	=14
1FF	-bis	.	1A	-bis	.	1f	-bis	.	1cc	-bis	.
2r	.	.	2r	.	.	2r	.	.	2r	.	.
=15	=15	=15	=15	=15	=15	=15	=15	=15	=15	=15	=15
!	!	!LO:DY:a	!	!	!LO:DY:a	!	!	!LO:DY:a	!	!	!LO:DY:a
2C/	mi-	p	4e\	Mi-	p	4g\	mi-	p	1cc	mi-	p
.	.	.	4d\	.	.	4f\	.	.	.	.	.
2E\	.	.	4c\	.	.	4e\	.	.	.	.	.
.	.	.	4B-\	.	.	4d\	.	.	.	.	.
2C/	-se-	.	4A\	-se-	.	4c\	-se-	.	2ee\	-se-	.
.	.	.	4G\	.	.	4B-\	.	.	.	.	.
=16	=16	=16	=16	=16	=16	=16	=16	=16	=16	=16	=16
2F\	-re-	.	2F/	-re-	.	2A/	-re-	.	2cc\	-re-	.
2C/	.	.	2G/	.	.	2B-/	.	.	2b-\	.	.
2F\	-re	.	2A/	-re	.	2c/	-re	.	2a\	-re	.
!	!	!	!	!	!	!LO:LB:g=original	!	!	!	!	!
=17	=17	=17	=17	=17	=17	=17	=17	=17	=17	=17	=17
!	!	!LO:DY:a	!	!	!LO:DY:a	!	!	!LO:DY:a	!	!	!LO:DY:a
2BB-/	Mi-	f	1B-	Mi-	f	2d\	mi-	f	2b-\	mi-	p
2C/	.	.	.	.	.	2g\	.	.	2cc\	.	.
2F\	-se-	.	2A\	-se-	.	2f\	-se-	.	2dd\	-se-	.
!	!	!	!LO:LB:g=original	!	!	!	!	!	!	!	!
=18	=18	=18	=18	=18	=18	=18	=18	=18	=18	=18	=18
2E\	-re-	.	1G	-re-	.	1e	-re-	.	1b-	-re-	.
2C\	.	.	.	.	.	.	.	.	.	.	.
2F\	-re	.	2A/	-re	.	2f\	-re	.	2cc\	-re	.
=19	=19	=19	=19	=19	=19	=19	=19	=19	=19	=19	=19
2D/	no-	.	2B-\	no-	.	2g\	no-	.	2dd\	no-	.
1C	.	.	2A\	.	.	2f\	.	.	1cc	.	.
.	.	.	2G/	.	.	2e\	.	.	.	.	.
=20	=20	=20	=20	=20	=20	=20	=20	=20	=20	=20	=20
1F	-bis	.	1A	-bis	.	1f	-bis	.	1.cc	-bis	.
2r	.	.	2ryy	.	.	2r	.	.	.	.	.
!LO:LB:g=original	!	!	!LO:LB:g=original	!	!	!LO:LB:g=original	!	!	!	!	!
=21	=21	=21	=21	=21	=21	=21	=21	=21	=21	=21	=21
*M2/2	*	*	*M2/2	*	*	*M2/2	*	*	*M2/2	*	*
*met(c|)	*	*	*met(c|)	*	*	*met(c|)	*	*	*met(c|)	*	*
4F\	A-	.	4A\	A-	.	4f\	A-	.	2.cc\	A-	.
4G\	.	.	4B-\	.	.	4e\	.	.	.	.	.
4A\	.	.	4A\	.	.	4f\	.	.	.	.	.
4B-\	-gnus	.	8B-\L	-gnus	.	8g\L	-gnus	.	4cc	.	.
.	.	.	8A\J	.	.	8f\J	.	.	.	-gnus	.
=22	=22	=22	=22	=22	=22	=22	=22	=22	=22	=22	=22
4c\	De-	.	8A\L	De-	.	4e\	De-	.	4g\	de-	.
.	.	.	8G\J	.	.	.	.	.	.	.	.
4C/	-i	.	4G/	-i	.	4e\	-i	.	4g\	-i	.
4r	.	.	4r	.	.	4r	.	.	4r	.	.
4C/	qui-	.	8G\L	qui-	.	8e\L	qui-	.	4g\	qui-	.
.	.	.	8B-\J	.	.	8g\J	.	.	.	.	.
=23	=23	=23	=23	=23	=23	=23	=23	=23	=23	=23	=23
4F\	-tol-	.	8B-\L	-tol-	.	8g\L	-tol-	.	4cc\	-tol-	.
.	.	.	8A\J	.	.	8f\J	.	.	.	.	.
4F\	-lis	.	4A\	-lis	.	4f\	-lis	.	4cc\	-lis	.
4r	.	.	4r	.	.	4r	.	.	4r	.	.
4F\	pec-	.	4c\	pec-	.	4a\	pec-	.	4cc\	pec-	.
=24	=24	=24	=24	=24	=24	=24	=24	=24	=24	=24	=24
2E\	-ca-	.	2c\	-ca-	.	2b-\	-ca-	.	2g\	-ca-	.
2F\	-ta	.	2c\	-ta	.	2a\	-ta	.	2a\	-ta	.
=25	=25	=25	=25	=25	=25	=25	=25	=25	=25	=25	=25
2BB-/	mun-	.	1d	mun-	.	2g\	mun-	.	2b-\	mun-	.
2BBn/	.	.	.	.	.	2f\	.	.	2dd\	.	.
=26	=26	=26	=26	=26	=26	=26	=26	=26	=26	=26	=26
!LO:TX:a:t=Dona nobis ut Kyrie	!	!	!LO:TX:a:t=Dona Nobis ut Kyrie	!	!	!LO:TX:a:t=Dona ut Kyrie	!	!	!LO:TX:a:t=Dona ut Kyrie	!	!
1C	-di	.	1c	-di	.	1g	-di	.	1ee	-di	.
==	==	==	==	==	==	==	==	==	==	==	==
*-	*-	*-	*-	*-	*-	*-	*-	*-	*-	*-	*-
!!!system-decoration: [(s1,s2,s3,s4)]
!!!ENC: Berenika Jozajtis
!!!END: 2024-02-14
!!!ENC: Leszek Kubiak
!!!END: 2024-08-04
